!!!!SEGMENT: pl-cz--i-157_anonim--superne-regum-rex-bone-ad-jussa-cujus-turgidae.krn
!!!cenid: 16xx:1476
!!!COM: Anonim
!!!COM-rismID:
!!!CDT:
!!!CNT:
!!!OTL: [Superne Regum Rex bone] / Ad jussa cujus turgidae
!!!PDT: 1621
!!!AGN:
!!!SMS-siglum: PL-CZ
!!!SMS-shelfmark: I-157
!!!SMS-shelfwork: W
!!!SMS-variant:
!!!SMS-altvar:
!!!NIFC-rismSourceID: 300033540
!!!NIFC-islandoraID: pl-cz:883
!!!URL-pdf-islandora: https://repozytorium.nifc.pl/islandora/object/pl-cz%3A883/datastream/PDF/view
!!!URL-scan: https://polish.musicsources.pl/pl/lokalizacje/galeria/rekopisy/559 @EN{Scan on Polish Music Herritage in Open Access Website} @PL{Skany w portalu Dziedzictwo Muzyki Polskiej w otwartym dostępie}
!!!ONB-nifc:
!!!AIN: 1 alto 1 bass 1 organ 1 soprn 1 tenor
!!!key: a
**kern	**fba	**kern	**text	**text	**text	**kern	**text	**text	**text	**kern	**text	**text	**text	**kern	**text	**text	**text
*part5	*	*part4	*part4	*part4	*part4	*part3	*part3	*part3	*part3	*part2	*part2	*part2	*part2	*part1	*part1	*part1	*part1
*staff5	*	*staff4	*staff4	*staff4	*staff4	*staff3	*staff3	*staff3	*staff3	*staff2	*staff2	*staff2	*staff2	*staff1	*staff1	*staff1	*staff1
*IGcont	*	*IGcoro	*	*	*	*IGcoro	*	*	*	*IGcoro	*	*	*	*IGcoro	*	*	*
*ICklav	*	*ICvox	*	*	*	*ICvox	*	*	*	*ICvox	*	*	*	*ICvox	*	*	*
*Iorgan	*	*Ibass	*	*	*	*Itenor	*	*	*	*Ialto	*	*	*	*Isoprn	*	*	*
*I"Organo	*	*I"Baſso	*	*	*	*I"Tenore	*	*	*	*I"Alto	*	*	*	*I"Canto.	*	*	*
*I'org	*	*I'B	*	*	*	*I'T	*	*	*	*I'A	*	*	*	*I'S	*	*	*
*clefF4	*	*clefF4	*	*	*	*clefC4	*	*	*	*clefC3	*	*	*	*clefC1	*	*	*
*k[]	*	*k[]	*	*	*	*k[]	*	*	*	*k[]	*	*	*	*k[]	*	*	*
*a:	*	*a:	*	*	*	*a:	*	*	*	*a:	*	*	*	*a:	*	*	*
*M3/1	*	*M3/1	*	*	*	*M3/1	*	*	*	*M3/1	*	*	*	*M3/1	*	*	*
*	*	*all\right	*	*	*	*all\right	*	*	*	*all\right	*	*	*	*all\right	*	*	*
*2\right	*	*2\right	*	*	*	*2\right	*	*	*	*2\right	*	*	*	*2\right	*	*	*
=1	=1	=1	=1	=1	=1	=1	=1	=1	=1	=1	=1	=1	=1	=1	=1	=1	=1
!LO:TX:b:i:t=Ad Juſsa	!	!	!	!	!	!	!	!	!	!	!	!	!	!	!	!	!
!LO:TX:a:i:t=Gratiarum Actio pro Victoria ex Turcis	!	!	!	!	!	!	!	!	!	!LO:TX:t=P:problem=tekst słowny A T B podpisany zgodnie z głosem A	!	!	!	!	!	!	!
0.A	.	0.A	Ad	Tu	Er-	0.A	Ad	Tu	Er-	0.e	Ad	Tu	Er-	0.cc	Ad	Tu	Er-
=2	=2	=2	=2	=2	=2	=2	=2	=2	=2	=2	=2	=2	=2	=2	=2	=2	=2
0.G#X	x 6	0G#X	Ju-	Bar-	-go	0B	Ju-	Bar-	-go	0e	Ju-	Bar-	-go	0b	Ju-	Bar-	-go
!	!	!LO:SIC:v:l:s=hic:verse3	!	!	!	!	!	!	!	!	!	!	!	!	!	!	!
.	.	1G#	-ſsa	-ba-	tu-	1e	-ſsa	-ba-	hic	1e	-ſsa	-ba-	hic	1b	-ſsa	-ba-	hic
=3	=3	=3	=3	=3	=3	=3	=3	=3	=3	=3	=3	=3	=3	=3	=3	=3	=3
!	!	!LO:SIC:v:l:s=Cel-:verse3	!	!	!	!	!	!	!	!	!	!	!	!	!	!	!
0A	.	0A	Cu-	-ros	-o	0e	Cu-	-ros	Cel-	0e	Cu-	-ros	Cel-	0cc	Cu-	-ros	Cel-
!	!	!LO:SIC:v:l:s=-siſ-:verse3	!	!	!	!	!	!	!	!	!	!	!	!	!	!	!
1D	.	1D	-i(us)	o-	Cel-	1d	-ius	O-	-sis-	1f	-ius	O-	sis-	1dd	-ius	O-	ſi-
=4	=4	=4	=4	=4	=4	=4	=4	=4	=4	=4	=4	=4	=4	=4	=4	=4	=4
!	!	!	!	!	!	!	!	!	!	!	!	!	!	!	!	!	!
1.E	.	2E\	tur-	-ſma-	-siſ-	1G	tur-	-sma-	.	1.g	tur-	-sma-	.	2cc\	tu-	-sma-	.
.	.	2D\	.	.	.	.	.	.	.	.	.	.	.	2b\	.	.	.
.	.	2E\	.	.	.	1.g	.	.	.	.	.	.	.	2g\	.	.	.
!	!	!	!	!	!	!	!	!	!	!	!	!	!	!	!	!	!
2F\	.	2F\	.	.	.	.	.	.	.	4f\	.	.	.	2a\	.	.	.
.	.	.	.	.	.	.	.	.	.	4e\	.	.	.	.	.	.	.
1G	x 6	1G	.	.	.	.	.	.	.	2d\	.	.	.	1b	.	.	.
!	!	!	!	!	!	!	!	!	!	!	!	!	!	!	!	!	!
.	.	.	.	.	.	2d\	.	.	.	4g\	.	.	.	.	.	.	.
.	.	.	.	.	.	.	.	.	.	8f\L	.	.	.	.	.	.	.
.	.	.	.	.	.	.	.	.	.	8e\J	.	.	.	.	.	.	.
=5	=5	=5	=5	=5	=5	=5	=5	=5	=5	=5	=5	=5	=5	=5	=5	=5	=5
1A	x #	(1A	.	.	.	1c	.	.	.	(1f	.	.	.	0cc	.	.	.
0G	x #	1.G)	.	.	.	1.d	.	.	.	1.g)	.	.	.	.	.	.	.
.	x 4	.	.	.	.	.	.	.	.	.	.	.	.	1b	-rgi-	ni-	-si-
.	x 3	2G\	-gi-	-ni-	-si-	2d\	-gi-	-ni-	-si-	2g\	-gi-	-ni-	-si-	.	.	.	.
=6	=6	=6	=6	=6	=6	=6	=6	=6	=6	=6	=6	=6	=6	=6	=6	=6	=6
0.C	.	0.C	-dae	-cos	-mo	0.e	-dae	-cos	-mo	0.g	-dae	-cos	-mo	0.cc	-dae	-cos	-mo
=7	=7	=7	=7	=7	=7	=7	=7	=7	=7	=7	=7	=7	=7	=7	=7	=7	=7
1c	.	1c	ma-	a-	Sit	1e	Ma-	a-	Sit	1e	Ma-	A-	Sit	1cc	Ma-	A	Sit
1A	.	1A	-ris	-pros	no-	1c	-ris	-pros	no-	1f	-ris	-pros	no-	1cc	-riſ	pro-	no-
!	!	!	!	!	!	!LO:SIC:v:s=1c	!	!	!	!	!	!	!	!	!	!	!
1E	.	1E	pro-	fu-	-mi-	1B	pro-	fu-	-mi-	1g	pro-	fu-	-mi-	1cc	pro-	-fu	-mi-
=8	=8	=8	=8	=8	=8	=8	=8	=8	=8	=8	=8	=8	=8	=8	=8	=8	=8
!	!	!	!	!	!	!	!	!	!	!	!	!	!	!LO:N:vis=0	!	!	!
1.F	.	2F\	-cel-	-gas	-ni	2A/	-cel-	gas	-ni	1.a	-cel-	-gas	-ni	1cc	-ce-	fa-	-ni
.	.	2E\	.	.	.	2G/	.	.	.	.	.	.	.	.	.	.	.
!	!	!	!	!	!	!	!	!	!	!	!	!	!	!LO:N:vis=0.	!	!	!
!	!	!	!	!	!	!	!	!	!	!	!	!	!	!LO:TX:t=P:problem=przekreślona synkopowana wartość	!	!	!
.	.	2F\	.	.	.	2A/	.	.	.	.	.	.	.	1.dd	.	.	.
2G\	.	2G\	.	.	.	2B/	.	.	.	4g\	.	.	.	.	.	.	.
.	.	.	.	.	.	.	.	.	.	4f\	.	.	.	.	.	.	.
1A	.	1A	-lae	e	laus	1c#X	-lae	e	laus	1e	-lae	e	laus	.	.	.	.
!	!	!	!	!	!	!	!	!	!	!	!	!	!	!LO:N:vis=1	!	!	!
.	.	.	.	.	.	.	.	.	.	.	.	.	.	2a\	-llae	-ſE	La-
=9	=9	=9	=9	=9	=9	=9	=9	=9	=9	=9	=9	=9	=9	=9	=9	=9	=9
!	!	!	!	!	!	!	!	!	!	!LO:LB:g=original	!	!	!	!	!	!	!
1B-X	.	1B-X	sub-	Vi-	glo-	1d	sub-	Vi-	glo-	1d	sub-	Vi-	et	2g\	Su-	vi-	-uſ
.	.	.	.	.	.	.	.	.	.	.	.	.	.	4a\	.	.	.
!	!	!	!	!	!	!	!	!	!	!	!	!	!	!LO:SIC:v:s=4b-\	!	!	!
.	.	.	.	.	.	.	.	.	.	.	.	.	.	4b\	.	.	.
0A	x #	1.A	.	.	.	1.d	.	.	.	1.e	.	.	Glo-	1.a	.	.	glo-
!	!	!	!	!	!	!LO:TX:t=P:problem=# above	!	!	!	!	!	!	!	!	!	!	!
.	x 4	2A\	-si-	-ne-	-ri-	2c#X\	-si-	-ne-	-ri-	2e\	-si-	-ne-	-ri-	2a\	-bſi-	-ne-	-ri-
.	x 3	.	.	.	.	.	.	.	.	.	.	.	.	.	.	.	.
=10	=10	=10	=10	=10	=10	=10	=10	=10	=10	=10	=10	=10	=10	=10	=10	=10	=10
!	!	!	!	!	!	!	!	!	!	!	!	!	!	!LO:LB:g=original	!	!	!
0.D	.	0.D	-dent	-a	-a	0.d	-dent	-a	-a	0.f#X	-dent	-a	-a	0.a	-de(n)t	-a	-a
=11	=11	=11	=11	=11	=11	=11	=11	=11	=11	=11	=11	=11	=11	=11	=11	=11	=11
!	!	!LO:LB:g=original	!	!	!	!LO:LB:g=original	!	!	!	!	!	!	!	!	!	!	!
1D	x #	1D	I-	Po-	Qui	1d	I-	Po-	Qui	1f#X	I-	Po-	Qui	1a	I-	Po-	Qui
1G	.	1G	-ra	-lo-	Tri-	1B	-ra	-lo-	Tri-	1g	-ras	-lo-	tri-	1b	-raſ	-lo-	Tri-
1G	.	1G	Le-	-ni-	-n(us)	1B	le-	-ni-	-n(us)	1a	le-	-ni-	-n(us)	1b	Le-	-ni-	-n(us)
=12	=12	=12	=12	=12	=12	=12	=12	=12	=12	=12	=12	=12	=12	=12	=12	=12	=12
!LO:LB:g=original	!	!	!	!	!	!	!	!	!	!	!	!	!	!	!	!	!
0G	.	0G	-o-	-ae	ac	0B	-o-	-ae	ac	0d	-o-	-ae	ac	1.b	-o-	-ae	a-
.	.	.	.	.	.	.	.	.	.	.	.	.	.	4a\	.	.	.
.	.	.	.	.	.	.	.	.	.	.	.	.	.	4b\	.	.	.
1F#X	6 5	1F#X	-nes	Re-	V-	1A	-nes	re-	V-	1d	-nes	Re-	V-	1cc	.	.	-c
=13	=13	=13	=13	=13	=13	=13	=13	=13	=13	=13	=13	=13	=13	=13	=13	=13	=13
0G	.	1.G	e-	-gnu(m)	-n(us)	2B\	e-	-gnu(m)	-n(us)	2d\	e-	-gnu(m)	n(us)	1.b	.	re-	U-
.	.	.	.	.	.	2A\	.	.	.	2c\	.	.	.	.	.	.	.
.	.	.	.	.	.	2B\	.	.	.	2d\	.	.	.	.	.	.	.
.	.	4F\	.	.	.	2c\	.	.	.	2e\	.	.	.	4a\	.	.	.
.	.	4E\	.	.	.	.	.	.	.	.	.	.	.	4g\	.	.	.
1D	x -	1D	.	.	.	2d\	.	.	.	2f\	.	.	.	1a	-neſ	-gnum	.
.	.	.	.	.	.	2B\	.	.	.	4g\	.	.	.	.	.	.	.
.	.	.	.	.	.	.	.	.	.	4f\	.	.	.	.	.	.	.
=14	=14	=14	=14	=14	=14	=14	=14	=14	=14	=14	=14	=14	=14	=14	=14	=14	=14
1E	x 6	(2E\	.	.	.	0c	.	.	.	(>1e	.	.	.	0g	ex-	Tu-	-n(us)
.	.	2F\)	.	.	.	.	.	.	.	.	.	.	.	.	.	.	.
0G	x 4	1.G	.	.	.	.	.	.	.	1.d)	.	.	.	.	.	.	.
.	x 3	.	.	.	.	1B	-xu-	tu-	De-	.	.	.	.	1g	-E-	.	DE-
.	.	2G\	-xu-	tu-	De-	.	.	.	.	2e\	-xu-	tu-	De-	.	.	.	.
=15	=15	=15	=15	=15	=15	=15	=15	=15	=15	=15	=15	=15	=15	=15	=15	=15	=15
0.C	.	0.C	-unt	-ae	-us	0.c	-unt	-ae	-us	0.e	-unt	-ae	-(us)	0.g	-unt	-ae	-US
=16	=16	=16	=16	=16	=16	=16	=16	=16	=16	=16	=16	=16	=16	=16	=16	=16	=16
1c	.	1c	Sol-	A	Pio	1e	Sol-	â	pio	1e	Sol-	a	pio	1cc	Sol-	a	Pi-
1G#X	6 5	1G#X	-stat	Cla-	Sae-	1d	-stat	Cla-	Sae-	1e	-stat	Cla-	Sae-	1b	-ſtat	cla-	-o
1A	.	1A	stu-	-de-	-cla-	1c	stu-	-de-	-cla-	1e	stu-	-de-	-cla-	1a	Stu-	-de-	Sae-
=17	=17	=17	=17	=17	=17	=17	=17	=17	=17	=17	=17	=17	=17	=17	=17	=17	=17
0E	.	1.E	-pens	-di-	-Vi-	2B\	-pens	-di-	-ui-	2e\	-pens	-di-	-ui-	0g	pe-	-di-	-cla-
!	!	!	!	!	!	!	!	!	!	!LO:TX:t=P:problem=# above	!	!	!	!	!	!	!
.	.	.	.	.	.	2A\	.	.	.	2f#X\	.	.	.	.	.	.	.
.	.	.	.	.	.	2B\	.	.	.	1.g	.	.	.	.	.	.	.
.	.	4D/	.	.	.	2c\	.	.	.	.	.	.	.	.	.	.	.
.	.	4C/	.	.	.	.	.	.	.	.	.	.	.	.	.	.	.
1BB	x 6	1BB	.	.	.	1d	.	.	.	.	.	.	.	1g	-nſ	-ra	-ui-
!	!	!	!	!	!	!	!	!	!	!LO:TX:t=P:problem=# above	!	!	!	!	!	!	!
.	.	.	.	.	.	.	.	.	.	2f#X\	.	.	.	.	.	.	.
=18	=18	=18	=18	=18	=18	=18	=18	=18	=18	=18	=18	=18	=18	=18	=18	=18	=18
1.C	.	2C/	.	.	.	2c\	.	.	.	0e	.	.	.	2a\	nec	Vi-	-vis
.	.	2BB/	.	.	.	2d\	.	.	.	.	.	.	.	2g\	.	.	.
.	.	2C/	.	.	.	2e\	.	.	.	.	.	.	.	2e/	Se-	.	O-
2D/	.	2D/	.	.	.	4d\	.	.	.	.	.	.	.	2f/	.	.	.
.	.	.	.	.	.	4c\	.	.	.	.	.	.	.	.	.	.	.
1E	.	1E	nec	-ra	uis	1B	nec	-ra	-uis	1e	nec	-ra	uis	1g#X	.	.	.
=19	=19	=19	=19	=19	=19	=19	=19	=19	=19	=19	=19	=19	=19	=19	=19	=19	=19
1F	.	1F	se-	Vin-	O-	1A	se-	uin-	Om-	1d	se-	uin-	om-	0a	.	n-	.
*	*below	*	*	*	*	*	*	*	*	*	*	*	*	*	*	*	*
0E	#	0E	-mo-	-di-	-mni-	0B	-mo-	-di-	-ni-	0e	-mo-	-di-	-ni-	.	.	.	.
*	*above	*	*	*	*	*	*	*	*	*	*	*	*	*	*	*	*
.	x 4	.	.	.	.	.	.	.	.	.	.	.	.	.	.	.	.
.	x 3	.	.	.	.	.	.	.	.	.	.	.	.	1g#X	-mo-	-di-	mni-
=20	=20	=20	=20	=20	=20	=20	=20	=20	=20	=20	=20	=20	=20	=20	=20	=20	=20
!	!	!	!	!	!	!	!	!	!	!LO:TX:b:i:t=Versus In Primis et In 2dis Idem\nR Castra uerterunt exterorum.	!	!	!	!	!	!	!
!	!	!LO:TX:b:i:t=Versus In Primis et 2dis Vesperis Idem\nR Castra uerterunt exterorum.	!	!	!	!LO:TX:b:i:t=Versus In 1mis et in 2dis Idem\nR Castra uerterunt exterorum.	!	!	!	!	!	!	!	!LO:TX:b:i:t=Versus In Primis et In Secundis Vesperis Idem.\nSancti perfidem facti Sunt in Cello.\nR. Castra, verterunt exterorum.	!	!	!
0.AA;	.	0.AA	-uens	-cans	-a	0.c#X	-uens	-cans	-a	0.e	-uens	-cans	-a	0.a	-venſ	-canſ	-a.
==	==	==	==	==	==	==	==	==	==	==;;	==	==	==	==	==	==	==
*-	*-	*-	*-	*-	*-	*-	*-	*-	*-	*-	*-	*-	*-	*-	*-	*-	*-
!!!system-decoration: [(s1,s2,s3,s4)]s5
!!!RDF**kern: > = above
!!!RDF**kern: < = below
!!!ENC: Andrzej Kubiczek
!!!END: 2021-10-30
!!!ENC: Krzysztof Stępień
!!!END: 2021-11-17
